X:1
T:Waltz in E Flat B.46
T:Valse
T:Brown-Index 46 1829-30
T:Public Domain
T:Public Domain
T:Public Domain
C:F. Chopin
Z:Public Domain
%%score { ( 1 3 ) | ( 2 4 ) }
L:1/8
M:3/4
K:Eb
V:1 treble nm="Piano"
V:3 treble 
V:2 bass 
V:4 bass 
V:1
 E | [Cc]E[cc']e!8va(![c'c'']e' | [bb']e'!8va)![Bb]e[B,B]E | f2 gf=ef | g2 e2 e2 | %5
 [Cc]E[cc']e!8va(![c'c'']e' | [bb']e'!8va)![Bb]e[B,B]E | f2 gfcd |1 e2 z2 z :|2 e4 e2 |: %10
 gf{/f}ed{/d}cB | bB[Ge]BGB | f2 d2 d>f | [Ge]Be'B!8va(!e''!8va)!B | gf{/f}ed{/d}cB | bB[Ge]BGB | %16
 f2 d2 d>f |1 e4 e2 :|2 e2 z2 [Ee]2 || [Cc]E[cc']e!8va(![c'c'']e' | [bb']e'!8va)![Bb]e[B,B]E | %21
 f2 gf=ef | g2 e2 e2 | [Cc]E[cc']e!8va(![c'c'']e' | [bb']e'!8va)![Bb]e[B,B]E | f2 gfcd | %26
 e2 z2 z2 |:[I:staff +1]{E,D,} C,2 C2 B,A, | G,2[I:staff -1] [Gceg]2 [G=Bdg]2 | %29
[I:staff +1]{E,D,} C,2 E2 CA, | G,2[I:staff -1] [Gceg]2 [G=Bdg]2 | %31
{/g} [e'g']>[d'f'][d'f'][c'e'][_bd'][ac'] | [ac']>[gb][gb][^f=a][=f_a][eg] | %33
 [eg]>[df] [df][ac'][gb][fa] |1 [eg]2 [GBeg]2 [G=Bfg]2 :|2 [G_Beg]2 z2 z E || %36
 [Cc]E[cc']e!8va(![c'c'']e' | [bb']e'!8va)![Bb]e[B,B]E | f2 gf=ef | g2 e2 e2 | %40
 [Cc]E[cc']e!8va(![c'c'']e' | [bb']e'!8va)![Bb]e[B,B]E | f2 gfcd | e2 z2 |:[M:3/4]"^Trio" E2 | %45
!>(!{Begbe'} [e'g']3 [ff']!>)! [ge']>[ac'] | [gb] z!<(! Bg e2!<)! | B>B B>e Be | %48
 [df]2 (3B[df]B b2 |!>(!{Begbe'} [e'g']3 [ff']!>)! [ge']>[ac'] | [gb] z!<(! B>g e2!<)! | A2 A2 A2 | %52
 e2 z2 :| z E | [Cc]E[cc']e!8va(![c'c'']e' | [bb']e'!8va)![Bb]e[B,B]E | f2 gf=ef | g2 e2 e2 | %58
 [Cc]E[cc']e!8va(![c'c'']e' | [bb']e'!8va)![Bb]e[B,B]E | f2 gfcd | e2 z2 z E | E>D C2 E2 | %63
 B,2 E>G B2 | B>B B2 B2 | B2 e2 e2 | e>d c2 e2 |{/e} B2 e>g b2 | [Bb]2 [Bb]>[Bb] [Bb]2 | %69
 [ee']2 z2 z E | [Cc]E[cc']e!8va(![c'c'']e' | [bb']e'!8va)![Bb]e[B,B]E | f2 gf=ef | g2 e2 e2 | %74
 [Cc]E[cc']e!8va(![c'c'']e' | [bb']e'!8va)![Bb]e[B,B]E | f2 gfcd | [Ge]2 z2 z |] %78
V:2
 z | [A,,,A,,]2 [E,A,C]2 [E,A,C]2 | [E,,,E,,]2 [B,,E,G,]2 [B,,E,G,]2 | %3
 [B,,,B,,]2 [F,B,D]2 [F,B,D]2 | [E,,,E,,]2 [E,B,E]2 [E,G,E]2 | [A,,,A,,]2 [E,A,C]2 [E,A,C]2 | %6
 E,,2 [B,,E,G,]2 [B,,E,G,]2 | [B,,,B,,]2 [F,B,D]2 [F,B,D]2 |1 [E,B,E]2 E,,2 z :|2 %9
 [E,B,E]2 E,,2 z2 |: B,,2 [F,B,D]2 [F,B,D]2 | E,,2 [E,B,E]2 [E,B,E]2 | B,,2 [F,B,D]2 [F,B,D]2 | %13
 E,,2 [G,B,E]2 [G,B,E]2 | B,,2 [F,B,D]2 [F,B,D]2 | E,,2 [E,B,E]2 [E,B,E]2 | %16
 B,,2 [F,B,D]2 [F,B,D]2 |1 [E,B,E]2 B,,2 E,,2 :|2 [E,B,E]2 E,,2 z2 || %19
 [A,,,A,,]2 [E,A,C]2 [E,A,C]2 | [E,,,E,,]2 [B,,E,G,]2 [B,,E,G,]2 | [B,,,B,,]2 [F,B,D]2 [F,B,D]2 | %22
 [E,,,E,,]2 [E,B,E]2 [E,G,E]2 | [A,,,A,,]2 [E,A,C]2 [E,A,C]2 | E,,2 [B,,E,G,]2 [B,,E,G,]2 | %25
 [B,,,B,,]2 [F,B,D]2 [F,B,D]2 | [E,B,E]2 E,,2 z2 |:{E,,D,,} C,,2 C,2 B,,A,, | %28
 G,,2 [G,,G,]2 [G,,,G,,]2 |{E,,D,,} C,,2 E,2 C,A,, | G,,2 [G,,G,]2 [G,,,G,,]2 | %31
 E,,2 [_B,EG]2 [CEA]2 | E,,2 [B,EG]2 [B,EG]2 | B,,2 [B,FA]2 [B,FA]2 |1 [EG]2 [E,,E,]2 [D,,D,]2 :|2 %35
 [E,B,E]2 E,,2 z2 || [A,,,A,,]2 [E,A,C]2 [E,A,C]2 | [E,,,E,,]2 [B,,E,G,]2 [B,,E,G,]2 | %38
 [B,,,B,,]2 [F,B,D]2 [F,B,D]2 | [E,,,E,,]2 [E,B,E]2 [E,G,E]2 | [A,,,A,,]2 [E,A,C]2 [E,A,C]2 | %41
 E,,2 [B,,E,G,]2 [B,,E,G,]2 | [B,,,B,,]2 [F,B,D]2 [F,B,D]2 | [E,B,E]2 E,,2 |:[M:3/4] z2 | %45
 E,,2 [B,EG]2 [B,EG]>[CEA] | [B,EG]2 [B,E]2 [E,B,]2 | E,,2 [E,B,E]2 [E,B,E]2 | %48
 B,,2 [B,FA]2 [B,FA]2 | E,,2 [B,EG]2 [B,EG]>[CEA] | [B,EG]2 [B,E]2 [E,B,]2 | B,,2 [B,F]2 [B,F]2 | %52
 [E,B,E]2 E,,2 :| z2 | [A,,,A,,]2 [E,A,C]2 [E,A,C]2 | [E,,,E,,]2 [B,,E,G,]2 [B,,E,G,]2 | %56
 [B,,,B,,]2 [F,B,D]2 [F,B,D]2 | [E,,,E,,]2 [E,B,E]2 [E,G,E]2 | [A,,,A,,]2 [E,A,C]2 [E,A,C]2 | %59
 E,,2 [B,,E,G,]2 [B,,E,G,]2 | [B,,,B,,]2 [F,B,D]2 [F,B,D]2 | [E,B,E]2 E,,2 z2 | %62
 E,>D, C,2 [=A,,E,_G,]2 | [B,,E,=G,]2 E,>G, B,2 |[K:treble] [FA]>[EG] [DF]2 [FA]2 | [EG]4 z2 | %66
 [=A,E_G]6 | [B,E=G]2 z2 z2 | [FA]>[EG] [DF]2 [FA]2 | [EG]2[K:bass] E,2 z2 | %70
 [A,,,A,,]2 [E,A,C]2 [E,A,C]2 | [E,,,E,,]2 [B,,E,G,]2 [B,,E,G,]2 | [B,,,B,,]2 [F,B,D]2 [F,B,D]2 | %73
 [E,,,E,,]2 [E,B,E]2 [E,G,E]2 | [A,,,A,,]2 [E,A,C]2 [E,A,C]2 | E,,2 [B,,E,G,]2 [B,,E,G,]2 | %76
 [B,,,B,,]2 [F,B,D]2 [F,B,D]2 | [E,B,E]2 E,,2 z |] %78
V:3
 x | x4!8va(! x2 | x2!8va)! x4 | AB[Ad]BAB | _eBGB _E2 | x4!8va(! x2 | x2!8va)! x4 | ABABAB |1 %8
 GBGB x :|2 GBGBGB |: ABABAB | x4 e>g | ABABAB | x4!8va(! x!8va)! x | ABABAB | x4 e>g | fBABAB |1 %17
 GBGBGB :|2 GBGB x2 || x4!8va(! x2 | x2!8va)! x4 | AB[Ad]BAB | _eBGB _E2 | x4!8va(! x2 | %24
 x2!8va)! x4 | ABABAB | GBGB x2 |: x6 | x6 | x6 | x6 | x6 | x6 | x6 |1 x6 :|2 x6 || x4!8va(! x2 | %37
 x2!8va)! x4 | AB[Ad]BAB | _eBGB _E2 | x4!8va(! x2 | x2!8va)! x4 | ABABAB | G2 x2 |:[M:3/4] x2 | %45
 x6 | x2 G2 G2 | G2 G2 G2 | x6 | x6 | x2 G2 G2 | B>B Bd Bd | G2 x2 :| x2 | x4!8va(! x2 | %55
 x2!8va)! x4 | AB[Ad]BAB | _eBGB _E2 | x4!8va(! x2 | x2!8va)! x4 | ABABAB | GBGB x2 | x6 | x6 | %64
 x6 | x6 | x6 | x6 | x6 | x6 | x4!8va(! x2 | x2!8va)! x4 | AB[Ad]BAB | _eBGB _E2 | x4!8va(! x2 | %75
 x2!8va)! x4 | ABABAB | x5 |] %78
V:4
 x | x6 | x6 | x6 | x6 | x6 | x6 | x6 |1 x5 :|2 x6 |: x6 | x6 | x6 | x6 | x6 | x6 | x6 |1 x6 :|2 %18
 x6 || x6 | x6 | x6 | x6 | x6 | x6 | x6 | x6 |: x6 | x6 | x6 | x6 | x6 | x6 | x6 |1 x6 :|2 x6 || %36
 x6 | x6 | x6 | x6 | x6 | x6 | x6 | x4 |:[M:3/4] x2 | x6 | x6 | x6 | x6 | x6 | x6 | x6 | x4 :| x2 | %54
 x6 | x6 | x6 | x6 | x6 | x6 | x6 | x6 | x6 | x6 |[K:treble] B,6 | x6 | x6 | x6 | B,6 | %69
 x2[K:bass] x4 | x6 | x6 | x6 | x6 | x6 | x6 | x6 | x5 |] %78

